X:33
T:Capering Fools
M:6/8
C:© Paul Gitlitz 2010
K:A
"A"EAA cAA|eAA cBA|"D"Fdd def|"A"ecA "Bm"{Bc}BAF|!
"A"EAA cAA|eAA cBA|"A"aga "F#m"fec|1"E"dB"4"e "A"A2F:|2"E"dBe "A"A2g|!
|:"A"~a3 aba|fec A2f|"G"~=g3 gag|"D"fed "E"efg|!
"A"~a3 aba|fec A2f|"G"=gfe "D/F#"fec|"E"BAG "A"A3:|]
